X: 10092
T: BONNY BOAT
C:
%R: march
B: Elias Howe "The Musician's Companion" Part 1 1842 p.9 #2
S: http://imslp.org/wiki/The_Musician's_Companion_(Howe,_Elias)
Z: 2015 John Chambers <jc:trillian.mit.edu>
M: C|	% Should be C or 4/4
L: 1/8
K: F
% - - - - - - - - - - - - - - - - - - - - - - - - -
F |\
Ac c>d cf g/f/e/d/ | cA G>F AG zF |\
Ac  c>d cf g/f/e/d/ | c>A GA F2 zc |\
fccc fccc | d>c df g2 zf |\
f>a d>f c>f cA |
G>F G>E F2 zF |\
A>B cA d>e fd | cAGF AG zF |\
A>B cA d>e g/f/e/d/ | cf g>a gf zc |\
fccc fccc | d>c df g2 zf |\
fa d>f c>f cA | G>F GE F2 z |]
% - - - - - - - - - - - - - - - - - - - - - - - - -
